48x48/apps/keysmith.svg

<svg xmlns="http://www.w3.org/2000/svg" width="48" height="48" version="1.1">
 <path style="opacity:0.2" d="M 24,4 C 17.372583,4 12,9.372583 12,16 v 2.4375 A 16,16 0 0 0 8,29 16,16 0 0 0 24,45 16,16 0 0 0 40,29 16,16 0 0 0 36,18.447266 V 16 C 36,9.372583 30.627417,4 24,4 Z m 0,4.0996094 c 4.086315,0 7.450146,3.0657656 7.933594,7.0214846 A 16,16 0 0 0 24,13 16,16 0 0 0 16.064453,15.128906 C 16.544324,11.16931 19.910925,8.0996094 24,8.0996094 Z"/>
 <path style="fill:#12a1ac" d="M 24 3 C 17.372583 3 12 8.372583 12 15 L 12 17.4375 A 16 16 0 0 0 8 28 A 16 16 0 0 0 24 44 A 16 16 0 0 0 40 28 A 16 16 0 0 0 36 17.447266 L 36 15 C 36 8.372583 30.627417 3 24 3 z M 24 7.0996094 C 28.086315 7.0996094 31.450146 10.165375 31.933594 14.121094 A 16 16 0 0 0 24 12 A 16 16 0 0 0 16.064453 14.128906 C 16.544324 10.16931 19.910925 7.0996094 24 7.0996094 z"/>
 <path style="fill:#e34040" d="m 24,12.000001 a 15.5,14.959488 0 0 0 -1,0.05089 V 16 h 2 v -3.949105 a 15.5,14.959488 0 0 0 -1,-0.0509 z"/>
 <path style="opacity:0.2" d="M 36,29 A 12,12 0 0 1 24,41 12,12 0 0 1 12,29 12,12 0 0 1 24,17 12,12 0 0 1 36,29 Z"/>
 <path style="fill:#f4f4f7" d="M 36,28 A 12,12 0 0 1 24,40 12,12 0 0 1 12,28 12,12 0 0 1 24,16 12,12 0 0 1 36,28 Z"/>
 <path style="fill:#10ca15" d="M 23 17 L 23 20 L 25 20 L 25 17 L 23 17 z M 17.283203 19.869141 L 15.869141 21.283203 L 17.283203 22.697266 L 18.697266 21.283203 L 17.283203 19.869141 z M 30.716797 19.869141 L 29.302734 21.283203 L 30.716797 22.697266 L 32.130859 21.283203 L 30.716797 19.869141 z M 13 27 L 13 29 L 16 29 L 16 27 L 13 27 z M 32 27 L 32 29 L 35 29 L 35 27 L 32 27 z M 17.283203 33.302734 L 15.869141 34.716797 L 17.283203 36.130859 L 18.697266 34.716797 L 17.283203 33.302734 z M 30.716797 33.302734 L 29.302734 34.716797 L 30.716797 36.130859 L 32.130859 34.716797 L 30.716797 33.302734 z M 23 36 L 23 39 L 25 39 L 25 36 L 23 36 z"/>
 <path style="opacity:0.1" d="m 30,29 a 5.9999999,5.9999999 0 0 1 -6,6 5.9999999,5.9999999 0 0 1 -6,-6 5.9999999,5.9999999 0 0 1 6,-6 5.9999999,5.9999999 0 0 1 6,6 z"/>
 <path style="fill:#12a1ac" d="m 30,28 a 5.9999999,5.9999999 0 0 1 -6,6 5.9999999,5.9999999 0 0 1 -6,-6 5.9999999,5.9999999 0 0 1 6,-6 5.9999999,5.9999999 0 0 1 6,6 z"/>
 <path style="opacity:0.2;fill:#f4f4f7" d="M 24 3 C 17.372583 3 12 8.372583 12 15 L 12 16 C 12 9.372583 17.372583 4 24 4 C 30.627417 4 36 9.372583 36 16 L 36 15 C 36 8.372583 30.627417 3 24 3 z M 24 12 A 16 16 0 0 0 16.292969 14 C 16.193218 14.367318 16.111267 14.742626 16.064453 15.128906 A 16 16 0 0 1 24 13 A 16 16 0 0 1 31.933594 15.121094 C 31.886931 14.739281 31.805424 14.369133 31.707031 14.005859 A 16 16 0 0 0 24 12 z M 12 17.4375 A 16 16 0 0 0 8 28 A 16 16 0 0 0 8.0214844 28.421875 A 16 16 0 0 1 12 18.4375 L 12 17.4375 z M 36 17.447266 L 36 18.447266 A 16 16 0 0 1 39.978516 28.585938 A 16 16 0 0 0 40 28 A 16 16 0 0 0 36 17.447266 z"/>
</svg>

<svg xmlns="http://www.w3.org/2000/svg" width="48" height="48"><path style="opacity:.2" d="M24 4c-6.627 0-12 5.373-12 12v2.438A16 16 0 0 0 8 29a16 16 0 0 0 16 16 16 16 0 0 0 16-16 16 16 0 0 0-4-10.553V16c0-6.627-5.373-12-12-12zm0 4.1c4.086 0 7.45 3.065 7.934 7.021A16 16 0 0 0 24 13a16 16 0 0 0-7.936 2.129c.48-3.96 3.847-7.03 7.936-7.03z"/><path style="fill:#12a1ac" d="M24 3c-6.627 0-12 5.373-12 12v2.438A16 16 0 0 0 8 28a16 16 0 0 0 16 16 16 16 0 0 0 16-16 16 16 0 0 0-4-10.553V15c0-6.627-5.373-12-12-12zm0 4.1c4.086 0 7.45 3.065 7.934 7.021A16 16 0 0 0 24 12a16 16 0 0 0-7.936 2.129c.48-3.96 3.847-7.03 7.936-7.03z"/><path style="fill:#e34040" d="M24 12a15.5 14.96 0 0 0-1 .05V16h2v-3.95a15.5 14.96 0 0 0-1-.05z"/><path style="opacity:.2" d="M36 29a12 12 0 0 1-12 12 12 12 0 0 1-12-12 12 12 0 0 1 12-12 12 12 0 0 1 12 12z"/><path style="fill:#f4f4f7" d="M36 28a12 12 0 0 1-12 12 12 12 0 0 1-12-12 12 12 0 0 1 12-12 12 12 0 0 1 12 12z"/><path style="fill:#10ca15" d="M23 17v3h2v-3h-2zm-5.717 2.87-1.414 1.413 1.414 1.414 1.414-1.414-1.414-1.414zm13.434 0-1.414 1.413 1.414 1.414 1.414-1.414-1.414-1.414zM13 27v2h3v-2h-3zm19 0v2h3v-2h-3zm-14.717 6.303-1.414 1.414 1.414 1.414 1.414-1.414-1.414-1.414zm13.434 0-1.414 1.414 1.414 1.414 1.414-1.414-1.414-1.414zM23 36v3h2v-3h-2z"/><path style="opacity:.1" d="M30 29a6 6 0 0 1-6 6 6 6 0 0 1-6-6 6 6 0 0 1 6-6 6 6 0 0 1 6 6z"/><path style="fill:#12a1ac" d="M30 28a6 6 0 0 1-6 6 6 6 0 0 1-6-6 6 6 0 0 1 6-6 6 6 0 0 1 6 6z"/><path style="opacity:.2;fill:#f4f4f7" d="M24 3c-6.627 0-12 5.373-12 12v1c0-6.627 5.373-12 12-12s12 5.373 12 12v-1c0-6.627-5.373-12-12-12zm0 9a16 16 0 0 0-7.707 2c-.1.367-.182.743-.229 1.129A16 16 0 0 1 24 13a16 16 0 0 1 7.934 2.121 7.948 7.948 0 0 0-.227-1.115A16 16 0 0 0 24 12zm-12 5.438A16 16 0 0 0 8 28a16 16 0 0 0 .021.422A16 16 0 0 1 12 18.437v-1zm24 .01v1a16 16 0 0 1 3.979 10.138A16 16 0 0 0 40 28a16 16 0 0 0-4-10.553z"/></svg>
